X:308
T:Chechen Girl
Z:Jack Campin, http://www.campin.me.uk/
F:Jack Campin's Nine-Note Tunebook
% last edit 03-02-2013
C:Tanburi Cemil Bey
M:2/4 % Nim sofyan
L:1/16
Q:1/4=88
K:DDor
DEFG  A2`A2|A8        |AG```Ad  A4  |AG`Ad A4   |
AGAd  AG`Ad|AG`Ad A4  |G2```FA  G2z2|G2`FA G2z2 |
G2c_B BA`AG|GF`FE EDEC|DE```FE  GAEC|D4    z4  :|
CDEF  GA`Bc|d8        |d4       d4  |d4    d4   |
c2dc  c_BBA|AG`GF FEED|DE```FE  FGEC|D6      z2:|
EFG2  GA`F2|EF`G2 GAF2|EF```G2  GAF2|E2 F4   E2:|
DEFG  A2 A2|Ad A4   AG|GC```DE  FGAG|Ad A4   AG |
F2G4     GF|E2 F4   FE|DE (3EDC F2ED|D6      z2:|

